X:341
T:Old Towler. RH.341
R:jig
S:Rev.R.Harrison’s MS,c1815,Cumbria
O:England
A:Temple Sowerby,Cumbria
Z:vmp.Simon Wilson. Review PJH, 2008.
M:6/8
L:1/8
Q:3/8=120
K:D
A|d2d B2G|F2G A2=c|B2d ceg|f3 eA2|\
d2d f2d|B2B e2d|c2c BAB|A3 z2:|!
(c/d/)|e2c A2A|f2d A2A|c2e g2f|f3 eA2|\
A^GA Bcd|efg afd|B2e d2c|c3 d2(D/F/)|!
A3 A3|Adz z2A|AFA AFA|Adz z2(c/d/)|\
e3 e3|eaz z2e|ece ece|egz z2g|!
fd{d}z {d}z2f|eA{A}z {A}z2g|\
fd{d}z {d}z2f|eA{A} z {A}z2A|\
dff dff|d3 d3|dff dff|a3 AG/F/E|!
D2G F2B|A2g f2e|e2e cBc|d3 g3|\
f2f ede|a3 g3|[F2f2]f ede|d3 {d’}{d’}d’d’d’|!
c’c’c’ c’c’c’|d’d’d’ d’d’d’|c’c’c’ c’c’c’|\
d’/a/f/d/f/a/ d’/a/f/d/f/a/|d’d’d’ d’2|]

